**kern	**kern	**dynam
*part1	*part1	*part1
*staff2	*staff1	*
*I"Piano	*	*
*clefF4	*clefG2	*
*k[f#c#g#d#]	*k[f#c#g#d#]	*
=1	=1	=1
*^	*^	*
*	*	*	*^	*
!	!	!LO:TX:a:B:t=  a Tempo	!	!	!
8rF	2E	8.c#L 8.cc#	4g#	8e\L	.
8G#L	.	.	.	8e\J 8g#	.
.	.	16c#Jk 16cc#	.	.	.
*	*	*v	*v	*v	*
8G#	.	8B#XL 8b#X	.
8G#J	.	8c#J 8e 8g# 8cc#	.
=	=	=	=
*	*	*^	*
!	!	!	!	!LO:DY:a
8r	4BB#X	4d# 4dd#	8re	<
8G#L	.	.	8f#L 8g#	.
8r	4C#	4e 4ee	8re	.
8G#J	.	.	8g#J	.
*v	*v	*	*	*
=	=	=	=
8.AAL 8.A	4.ff#	8.f#L	.
16AK 16c#	.	16cc#K	[
8A 8c#	.	8cc#	.
8AAJ 8A	8ff##X	8f##XJ 8cc#	.
*	*v	*v	*
=	=	=
!	!	!LO:DY:a
8.GG#L 8.G#	8.g#L 8.b#X 8.gg#	f
!	!	!LO:DY:a
16G#K 16B#X	16d#K 16g# 16gg#	p
8G# 8B#	8d# 8g#	.
8G#J 8B#	8d#J 8g#	.
=	=	=
*^	*^	*
8c#L	2G#	8aML	4d#	.
8B#XJ	.	8g#J	.	.
8c#L	.	8aML	4d#	.
8B#J	.	8g#J	.	.
*v	*v	*	*	*
*	*v	*v	*
=	=	=
!	!	!LO:DY:a
4G#	8eL 8g# 8cc#	pp
.	8f# 8g# 8dd#	.
4GG#	8g# 8ee	.
.	8f#J 8g# 8dd#	.
=	=	=
4G#	8eL 8g# 8cc#	.
.	8f#J 8g# 8dd#	.
4GG#	4B#X 4f# 4g#	.
=	=	=
*-	*-	*-
!!!system-decoration: {(s1,s2)}
